T: Dornoch Links
M: 2/4
L: 1/8
K: Amaj
|: a/f/ |eA cB/c/ | eA Aa/f/ | eA cB/c/ | fB Bc/d/ |
e/f/e/d/ cB/A/ | ce ac | df Be/d/ | cA A :|
|: e |a2 ef/g/ | ae/d/ cB/A/ | a2 e/f/e/d/ | dB Bg |
a2 ef/g/ | ae/d/ cB/A/ | df Be/d/ | cA A :|
